packages/elvis-assets-icons/icons/svg/src/sync.svg

<svg width="24" height="24" viewBox="0 0 24 24" fill="none" xmlns="http://www.w3.org/2000/svg">
<path d="M4.917 19.499H0.75C0.336 19.499 0 19.163 0 18.749C0 18.335 0.336 17.999 0.75 17.999H3.387C2.125 16.186 1.463 14.005 1.512 11.779C1.573 8.974 2.723 6.36 4.749 4.421C6.713 2.541 9.293 1.505 12.014 1.505C13.402 1.505 14.757 1.776 16.041 2.309C16.226 2.386 16.37 2.53 16.447 2.715C16.523 2.9 16.523 3.104 16.446 3.289C16.329 3.57 16.057 3.751 15.753 3.751C15.654 3.751 15.557 3.73201 15.465 3.69301C14.365 3.23601 13.204 3.004 12.014 3.004C9.682 3.004 7.47 3.892 5.786 5.504C4.049 7.16701 3.063 9.407 3.011 11.811C2.971 13.655 3.494 15.451 4.5 16.969V14.248C4.5 13.834 4.836 13.498 5.25 13.498C5.664 13.498 6 13.835 6 14.249V18.749C6 19.163 5.664 19.499 5.25 19.499H5.012C4.996 19.501 4.981 19.502 4.967 19.502C4.955 19.502 4.934 19.5 4.917 19.499Z" fill="black"/>
<path d="M11.995 22.501C10.603 22.501 9.24499 22.229 7.95699 21.693C7.77199 21.616 7.62799 21.472 7.55199 21.286C7.47599 21.101 7.47599 20.897 7.55299 20.712C7.66999 20.431 7.94199 20.25 8.24599 20.25C8.34499 20.25 8.44099 20.269 8.53299 20.307C9.63799 20.767 10.802 21.001 11.995 21.001C14.331 21.001 16.545 20.11 18.229 18.493C19.964 16.828 20.947 14.587 20.996 12.183C21.034 10.338 20.508 8.54302 19.499 7.02502V9.74902C19.499 10.163 19.163 10.499 18.749 10.499C18.335 10.499 18 10.162 18 9.74902V5.24902C18 4.83502 18.336 4.49902 18.75 4.49902H23.25C23.664 4.49902 24 4.83502 24 5.24902C24 5.66302 23.664 5.99902 23.25 5.99902H20.615C21.878 7.81002 22.542 9.98902 22.497 12.214C22.439 15.018 21.293 17.633 19.269 19.576C17.303 21.462 14.72 22.501 11.995 22.501Z" fill="black"/>
</svg>

<svg width="24" height="24" fill="none" xmlns="http://www.w3.org/2000/svg"><path d="M4.917 19.499H.75a.75.75 0 010-1.5h2.637a10.493 10.493 0 01-1.875-6.22 10.433 10.433 0 013.237-7.358 10.46 10.46 0 017.265-2.916c1.388 0 2.743.271 4.027.804a.748.748 0 01-.288 1.442.734.734 0 01-.288-.058 8.95 8.95 0 00-3.451-.689 8.967 8.967 0 00-6.228 2.5 8.943 8.943 0 00-2.775 6.307A8.976 8.976 0 004.5 16.969v-2.721a.75.75 0 111.5.001v4.5a.75.75 0 01-.75.75h-.238a.364.364 0 01-.045.003l-.05-.003zM11.995 22.501c-1.392 0-2.75-.272-4.038-.808a.747.747 0 01-.404-.981.748.748 0 01.98-.405 8.961 8.961 0 003.462.694 8.96 8.96 0 006.234-2.508 8.941 8.941 0 002.767-6.31 8.973 8.973 0 00-1.497-5.158v2.724a.75.75 0 01-1.499 0v-4.5a.75.75 0 01.75-.75h4.5a.75.75 0 010 1.5h-2.635a10.503 10.503 0 011.882 6.215 10.438 10.438 0 01-3.228 7.362 10.46 10.46 0 01-7.274 2.925z" fill="#000"/></svg>
